assets/images/bottom_navigation_bar/home_on.svg

<svg width="21" height="20" viewBox="0 0 21 20" fill="none" xmlns="http://www.w3.org/2000/svg">
<path d="M18.1917 6.67498L12.7334 2.30831C11.6667 1.45831 10 1.44997 8.9417 2.29997L3.48336 6.67498C2.70003 7.29998 2.22503 8.54997 2.3917 9.53331L3.4417 15.8166C3.68336 17.225 4.9917 18.3333 6.4167 18.3333H15.25C16.6584 18.3333 17.9917 17.2 18.2334 15.8083L19.2834 9.52497C19.4334 8.54997 18.9584 7.29998 18.1917 6.67498ZM11.4584 15C11.4584 15.3416 11.175 15.625 10.8334 15.625C10.4917 15.625 10.2084 15.3416 10.2084 15V12.5C10.2084 12.1583 10.4917 11.875 10.8334 11.875C11.175 11.875 11.4584 12.1583 11.4584 12.5V15Z" fill="#B82731"/>
</svg>

<svg xmlns="http://www.w3.org/2000/svg" width="21" height="20" fill="none"><path fill="#B82731" d="m18.192 6.675-5.459-4.367C11.667 1.458 10 1.45 8.942 2.3L3.483 6.675C2.7 7.3 2.225 8.55 2.392 9.533l1.05 6.284c.241 1.408 1.55 2.516 2.975 2.516h8.833c1.408 0 2.742-1.133 2.983-2.525l1.05-6.283c.15-.975-.325-2.225-1.091-2.85ZM11.458 15a.63.63 0 0 1-.625.625.63.63 0 0 1-.625-.625v-2.5a.63.63 0 0 1 .625-.625.63.63 0 0 1 .625.625V15Z"/></svg>
